X: 20262
T: Joe Peter's
R: jig
M: 6/8
K: Dmajor
|:G|F2 A FDF|GBG GDG|ABA AFD|GFG EE/F/G|
F2 A FD/E/F|G2 B GDG|A^GA dc/B/A|Afe d2:|
|:f|e2 c A^GA|fdA Fd/e/f|gb/a/g fad|
[1 gec A2 f|e2 c A^GA|fdA FD/E/F|GBe FAd|cAe d2:|
[2 ecA GG/F/E|FDA FD[DA,]|GDB BA^G|A^GA d2 B|Afe d2||

